img/icons/calendar.svg

<svg xmlns="http://www.w3.org/2000/svg" viewBox="0 0 20 20"><path d="M15.5 20h-11a4 4 0 0 1-4-4V5.6a4 4 0 0 1 4-4h11a4 4 0 0 1 4 4V16a4 4 0 0 1-4 4zM4.5 3.2a2.41 2.41 0 0 0-2.4 2.4V16a2.41 2.41 0 0 0 2.4 2.4h11a2.41 2.41 0 0 0 2.4-2.4V5.6a2.41 2.41 0 0 0-2.4-2.4z"/><path d="M18.71 7.4H1.29V5.6h17.42zM2.09 6.6v-.2"/><rect x="13.17" y="8.8" width="3.17" height="3.2" rx=".8" ry=".8"/><rect x="8.42" y="8.8" width="3.17" height="3.2" rx=".8" ry=".8"/><rect x="13.17" y="13.6" width="3.17" height="3.2" rx=".8" ry=".8"/><rect x="8.42" y="13.6" width="3.17" height="3.2" rx=".8" ry=".8"/><rect x="3.67" y="13.6" width="3.17" height="3.2" rx=".8" ry=".8"/><path d="M5.36 4.8a.9.9 0 0 1-.9-.9v-3a.9.9 0 0 1 1.8 0v3a.9.9 0 0 1-.9.9zM14.86 4.8a.9.9 0 0 1-.9-.9v-3a.9.9 0 0 1 1.8 0v3a.9.9 0 0 1-.9.9zM15 .9v3"/></svg>

<svg xmlns="http://www.w3.org/2000/svg" viewBox="0 0 20 20">
	<path d="M15.5,20H4.5a4,4,0,0,1-4-4V5.6a4,4,0,0,1,4-4h11a4,4,0,0,1,4,4V16A4,4,0,0,1,15.5,20ZM4.5,3.2A2.41,2.41,0,0,0,2.1,5.6V16a2.41,2.41,0,0,0,2.4,2.4h11A2.41,2.41,0,0,0,17.9,16V5.6a2.41,2.41,0,0,0-2.4-2.4Z"/>
	<path d="M18.71,7.4H1.29V5.6H18.71ZM2.09,6.6V6.4"/>
	<rect x="13.17" y="8.8" width="3.17" height="3.2" rx="0.8" ry="0.8"/>
	<rect x="8.42" y="8.8" width="3.17" height="3.2" rx="0.8" ry="0.8"/>
	<rect x="13.17" y="13.6" width="3.17" height="3.2" rx="0.8" ry="0.8"/>
	<rect x="8.42" y="13.6" width="3.17" height="3.2" rx="0.8" ry="0.8"/>
	<rect x="3.67" y="13.6" width="3.17" height="3.2" rx="0.8" ry="0.8"/>
	<path d="M5.36,4.8a.9.9,0,0,1-.9-.9V.9a.9.9,0,0,1,1.8,0v3A.9.9,0,0,1,5.36,4.8Z"/>
	<path d="M14.86,4.8a.9.9,0,0,1-.9-.9V.9a.9.9,0,0,1,1.8,0v3A.9.9,0,0,1,14.86,4.8ZM15,.9v3"/>
</svg>
